Simply-Blue-Circles/scalable/apps/time-admin.svg

<svg xmlns="http://www.w3.org/2000/svg" width="48" height="48" viewBox="0 0 12.7 12.7"><path fill="#2c89a0" d="M6.34.07a6.29 6.29 0 0 0-6.29 6.3 6.29 6.29 0 0 0 6.3 6.28 6.29 6.29 0 0 0 6.28-6.29A6.29 6.29 0 0 0 6.34.07zm-.01.94a5.4 5.4 0 0 1 5.4 5.4 5.4 5.4 0 0 1-5.4 5.41 5.4 5.4 0 0 1-5.41-5.4A5.4 5.4 0 0 1 6.32 1zM5.1 2.47a.47.47 0 0 0-.47.48v.75h.94v-.75a.47.47 0 0 0-.47-.48zm3.99 0a.47.47 0 0 0-.47.48v.75h.94v-.75a.47.47 0 0 0-.47-.48zM3.34 3.91V5.2h.01v1.6a2.06 2.06 0 0 0-1.18 1.86 2.06 2.06 0 0 0 2.05 2.05 2.06 2.06 0 0 0 1.6-.77h3.51c.43 0 .79-.14 1.09-.41.3-.28.45-.61.45-1V3.9zm.7 1.29h6.15v3.33a.73.73 0 0 1-.25.55.86.86 0 0 1-.6.23H6.16a2.06 2.06 0 0 0 .1-.65 2.06 2.06 0 0 0 0-.16h.57v-.3h-.61a2.06 2.06 0 0 0-.16-.44l.21-.22.27-.29c.1-.13.18-.24.22-.33a.76.76 0 0 0 .06-.3.66.66 0 0 0-.24-.53.95.95 0 0 0-.63-.2c-.1 0-.22.01-.34.04a2.76 2.76 0 0 0-.39.13v.35a2.08 2.08 0 0 1 .39-.17c.12-.04.23-.06.34-.06.16 0 .28.04.37.13a.43.43 0 0 1 .15.33.56.56 0 0 1-.07.26 1.6 1.6 0 0 1-.23.31l-.27.28a2.06 2.06 0 0 0-1.69-.89 2.06 2.06 0 0 0-.19 0zm4.15.74l-.61.12v.32l.62-.13V8.2h-.57v.3h1.48v-.3h-.57V5.94zm-4.21.68a2.06 2.06 0 0 0-.07 0 2.06 2.06 0 0 1 .07 0zm-.23.04a2.06 2.06 0 0 0-.03 0 2.06 2.06 0 0 1 .03 0zm.47.25a1.77 1.77 0 0 1 1.76 1.76 1.77 1.77 0 0 1-1.76 1.77 1.77 1.77 0 0 1-1.77-1.77 1.77 1.77 0 0 1 1.77-1.76zm.86.95a.15.15 0 0 0-.02 0 .15.15 0 0 0-.08.05l-.77.77-.48-.48a.15.15 0 1 0-.2.2l.58.58a.15.15 0 0 0 .2 0l.87-.87a.15.15 0 0 0-.1-.25zM6.1 9.49a2.06 2.06 0 0 1-.01.02 2.06 2.06 0 0 0 0-.02zM6 9.66a2.06 2.06 0 0 1-.03.05 2.06 2.06 0 0 0 .03-.05zm-.1.17a2.06 2.06 0 0 1-.06.09 2.06 2.06 0 0 0 .06-.1z"/></svg>

<?xml version="1.0" encoding="UTF-8" standalone="no"?>
<svg
   xmlns:dc="http://purl.org/dc/elements/1.1/"
   xmlns:cc="http://creativecommons.org/ns#"
   xmlns:rdf="http://www.w3.org/1999/02/22-rdf-syntax-ns#"
   xmlns:svg="http://www.w3.org/2000/svg"
   xmlns="http://www.w3.org/2000/svg"
   xmlns:sodipodi="http://sodipodi.sourceforge.net/DTD/sodipodi-0.dtd"
   xmlns:inkscape="http://www.inkscape.org/namespaces/inkscape"
   width="48"
   height="48"
   viewBox="0 0 12.7 12.7"
   version="1.1"
   id="svg4"
   sodipodi:docname="time-admin.svg"
   inkscape:version="0.92.4 (5da689c313, 2019-01-14)">
  <metadata
     id="metadata10">
    <rdf:RDF>
      <cc:Work
         rdf:about="">
        <dc:format>image/svg+xml</dc:format>
        <dc:type
           rdf:resource="http://purl.org/dc/dcmitype/StillImage" />
        <dc:title></dc:title>
      </cc:Work>
    </rdf:RDF>
  </metadata>
  <defs
     id="defs8" />
  <sodipodi:namedview
     pagecolor="#ffffff"
     bordercolor="#666666"
     borderopacity="1"
     objecttolerance="10"
     gridtolerance="10"
     guidetolerance="10"
     inkscape:pageopacity="0"
     inkscape:pageshadow="2"
     inkscape:window-width="1087"
     inkscape:window-height="480"
     id="namedview6"
     showgrid="false"
     inkscape:zoom="4.9166667"
     inkscape:cx="2.1355932"
     inkscape:cy="24"
     inkscape:window-x="0"
     inkscape:window-y="25"
     inkscape:window-maximized="0"
     inkscape:current-layer="svg4" />
  <path
     d="M 6.34,0.07 A 6.29,6.29 0 0 0 0.05,6.37 6.29,6.29 0 0 0 6.35,12.65 6.29,6.29 0 0 0 12.63,6.36 6.29,6.29 0 0 0 6.34,0.07 Z M 6.33,1.01 a 5.4,5.4 0 0 1 5.4,5.4 5.4,5.4 0 0 1 -5.4,5.41 A 5.4,5.4 0 0 1 0.92,6.42 5.4,5.4 0 0 1 6.32,1 Z M 5.1,2.47 A 0.47,0.47 0 0 0 4.63,2.95 V 3.7 H 5.57 V 2.95 A 0.47,0.47 0 0 0 5.1,2.47 Z m 3.99,0 A 0.47,0.47 0 0 0 8.62,2.95 V 3.7 H 9.56 V 2.95 A 0.47,0.47 0 0 0 9.09,2.47 Z M 3.34,3.91 V 5.2 h 0.01 v 1.6 a 2.06,2.06 0 0 0 -1.18,1.86 2.06,2.06 0 0 0 2.05,2.05 2.06,2.06 0 0 0 1.6,-0.77 h 3.51 c 0.43,0 0.79,-0.14 1.09,-0.41 0.3,-0.28 0.45,-0.61 0.45,-1 V 3.9 Z m 0.7,1.29 h 6.15 V 8.53 A 0.73,0.73 0 0 1 9.94,9.08 0.86,0.86 0 0 1 9.34,9.31 H 6.16 a 2.06,2.06 0 0 0 0.1,-0.65 2.06,2.06 0 0 0 0,-0.16 H 6.83 V 8.2 H 6.22 A 2.06,2.06 0 0 0 6.06,7.76 L 6.27,7.54 6.54,7.25 C 6.64,7.12 6.72,7.01 6.76,6.92 A 0.76,0.76 0 0 0 6.82,6.62 0.66,0.66 0 0 0 6.58,6.09 0.95,0.95 0 0 0 5.95,5.89 C 5.85,5.89 5.73,5.9 5.61,5.93 A 2.76,2.76 0 0 0 5.22,6.06 V 6.41 A 2.08,2.08 0 0 1 5.61,6.24 C 5.73,6.2 5.84,6.18 5.95,6.18 c 0.16,0 0.28,0.04 0.37,0.13 A 0.43,0.43 0 0 1 6.47,6.64 0.56,0.56 0 0 1 6.4,6.9 1.6,1.6 0 0 1 6.17,7.21 L 5.9,7.49 A 2.06,2.06 0 0 0 4.21,6.6 2.06,2.06 0 0 0 4.02,6.6 Z M 8.19,5.94 7.58,6.06 V 6.38 L 8.2,6.25 V 8.2 H 7.63 V 8.5 H 9.11 V 8.2 H 8.54 V 5.94 Z M 3.98,6.62 a 2.06,2.06 0 0 0 -0.07,0 2.06,2.06 0 0 1 0.07,0 z M 3.75,6.66 a 2.06,2.06 0 0 0 -0.03,0 2.06,2.06 0 0 1 0.03,0 z M 4.22,6.91 A 1.77,1.77 0 0 1 5.98,8.67 1.77,1.77 0 0 1 4.22,10.44 1.77,1.77 0 0 1 2.45,8.67 1.77,1.77 0 0 1 4.22,6.91 Z m 0.86,0.95 a 0.15,0.15 0 0 0 -0.02,0 0.15,0.15 0 0 0 -0.08,0.05 L 4.21,8.68 3.73,8.2 a 0.15,0.15 0 1 0 -0.2,0.2 l 0.58,0.58 a 0.15,0.15 0 0 0 0.2,0 L 5.18,8.11 A 0.15,0.15 0 0 0 5.08,7.86 Z M 6.1,9.49 a 2.06,2.06 0 0 1 -0.01,0.02 2.06,2.06 0 0 0 0,-0.02 z M 6,9.66 A 2.06,2.06 0 0 1 5.97,9.71 2.06,2.06 0 0 0 6,9.66 Z M 5.9,9.83 A 2.06,2.06 0 0 1 5.84,9.92 2.06,2.06 0 0 0 5.9,9.82 Z"
     id="path2"
     inkscape:connector-curvature="0"
     style="fill:#2c89a0" />
</svg>
